assets/img/braze_icons/phone-outgoing-02.svg

<svg fill="none" height="24" viewBox="0 0 24 24" width="24" xmlns="http://www.w3.org/2000/svg"><g fill="#801ed7"><path d="m16.7929 2.29289c-.3905.39053-.3905 1.02369 0 1.41422l1.7929 1.79289h-5.5858c-.5523 0-1 .44772-1 1s.4477 1 1 1h5.5858l-1.7929 1.79289c-.3905.39053-.3905 1.02371 0 1.41421s1.0237.3905 1.4142 0l3.5-3.49999c.3905-.39053.3905-1.02369 0-1.41422l-3.5-3.5c-.3905-.39052-1.0237-.39052-1.4142 0z"/><path d="m1.19373 8.97805c.94058 3.30925 2.7104 6.34015 5.14431 8.77415 2.43388 2.4338 5.46486 4.2038 8.77416 5.1443.519.1475.9214.2619 1.4733.2635.6308.0019 1.421-.2036 1.971-.5125.9594-.539 2.1615-1.6795 2.6562-2.6574.4306-.8514.4306-1.8568 0-2.7081-.4227-.8357-1.4011-1.7942-2.1838-2.3031-.9944-.6465-2.2762-.6465-3.2706 0-.2664.1732-.5129.4201-.7991.7068-.0131.0131-.0256.0264-.0376.0392-.0728.0776-.1319.1406-.2518.0831-1.3493-.6479-2.6149-1.5314-3.7356-2.652-1.12064-1.1207-2.00413-2.3863-2.65195-3.73559-.05691-.11851.01055-.18264.08794-.25622.01135-.01079.02291-.02178.03432-.03317.28666-.28617.53359-.53268.70683-.79913.64649-.99434.64649-2.27621 0-3.27055-.50892-.78274-1.46748-1.76115-2.30314-2.18382-.85134-.43061-1.85674-.43061-2.70808 0-.98533.49837-2.12609 1.71043-2.65737 2.6562-.30893.54994-.514439 1.34018-.512561 1.97095.001643.5519.116031.95437.263541 1.47338z"/></g></svg>

<svg width="24" height="24" viewBox="0 0 24 24" fill="none" xmlns="http://www.w3.org/2000/svg">
<path d="M16.7929 2.29289C16.4024 2.68342 16.4024 3.31658 16.7929 3.70711L18.5858 5.5H13C12.4477 5.5 12 5.94772 12 6.5C12 7.05228 12.4477 7.5 13 7.5H18.5858L16.7929 9.29289C16.4024 9.68342 16.4024 10.3166 16.7929 10.7071C17.1834 11.0976 17.8166 11.0976 18.2071 10.7071L21.7071 7.20711C22.0976 6.81658 22.0976 6.18342 21.7071 5.79289L18.2071 2.29289C17.8166 1.90237 17.1834 1.90237 16.7929 2.29289Z" fill="#801ED7"/>
<path d="M1.19373 8.97805C2.13431 12.2873 3.90413 15.3182 6.33804 17.7522C8.77192 20.186 11.8029 21.956 15.1122 22.8965C15.6312 23.044 16.0336 23.1584 16.5855 23.16C17.2163 23.1619 18.0065 22.9564 18.5565 22.6475C19.5159 22.1085 20.718 20.968 21.2127 19.9901C21.6433 19.1387 21.6433 18.1333 21.2127 17.282C20.79 16.4463 19.8116 15.4878 19.0289 14.9789C18.0345 14.3324 16.7527 14.3324 15.7583 14.9789C15.4919 15.1521 15.2454 15.399 14.9592 15.6857C14.9461 15.6988 14.9336 15.7121 14.9216 15.7249C14.8488 15.8025 14.7897 15.8655 14.6698 15.808C13.3205 15.1601 12.0549 14.2766 10.9342 13.156C9.81356 12.0353 8.93007 10.7697 8.28225 9.42041C8.22534 9.3019 8.2928 9.23777 8.37019 9.16419C8.38154 9.1534 8.3931 9.14241 8.40451 9.13102C8.69117 8.84485 8.9381 8.59834 9.11134 8.33189C9.75783 7.33755 9.75783 6.05568 9.11134 5.06134C8.60242 4.2786 7.64386 3.30019 6.8082 2.87752C5.95686 2.44691 4.95146 2.44691 4.10012 2.87752C3.11479 3.37589 1.97403 4.58795 1.44275 5.53372C1.13382 6.08366 0.928311 6.8739 0.930189 7.50467C0.931832 8.05657 1.04622 8.45904 1.19373 8.97805Z" fill="#801ED7"/>
</svg>
